www/assets/icons/person_add_alt.svg

<svg xmlns="http://www.w3.org/2000/svg" width="24" height="24" viewBox="0 0 24 24" fill='currentColor'><path d="M13 8c0-2.21-1.79-4-4-4S5 5.79 5 8s1.79 4 4 4 4-1.79 4-4m-2 0c0 1.1-.9 2-2 2s-2-.9-2-2 .9-2 2-2 2 .9 2 2M1 18v2h16v-2c0-2.66-5.33-4-8-4s-8 1.34-8 4m2 0c.2-.71 3.3-2 6-2 2.69 0 5.78 1.28 6 2zm17-3v-3h3v-2h-3V7h-2v3h-3v2h3v3z"/></svg>

<svg width="24" height="24" viewBox="0 0 24 24" xmlns="http://www.w3.org/2000/svg" fill='currentColor'><path d="M13 8C13 5.79 11.21 4 9 4C6.79 4 5 5.79 5 8C5 10.21 6.79 12 9 12C11.21 12 13 10.21 13 8ZM11 8C11 9.1 10.1 10 9 10C7.9 10 7 9.1 7 8C7 6.9 7.9 6 9 6C10.1 6 11 6.9 11 8ZM1 18V20H17V18C17 15.34 11.67 14 9 14C6.33 14 1 15.34 1 18ZM3 18C3.2 17.29 6.3 16 9 16C11.69 16 14.78 17.28 15 18H3ZM20 15V12H23V10H20V7H18V10H15V12H18V15H20Z"/></svg>
